modules/hawcons-filled/icons/icon-36-worried-face-teeth.svg

<?xml version="1.0" encoding="UTF-8" standalone="no"?>
<svg width="32px" height="32px" viewBox="0 0 32 32" version="1.1" xmlns="http://www.w3.org/2000/svg" xmlns:xlink="http://www.w3.org/1999/xlink" xmlns:sketch="http://www.bohemiancoding.com/sketch/ns">
    <!-- Generator: Sketch 3.0.3 (7891) - http://www.bohemiancoding.com/sketch -->
    <title>icon 36 worried face teeth</title>
    <desc>Created with Sketch.</desc>
    <defs></defs>
    <g id="Page-1" stroke="none" stroke-width="1" fill="none" fill-rule="evenodd" sketch:type="MSPage">
        <g id="icon-36-worried-face-teeth" sketch:type="MSArtboardGroup" fill="#929292">
            <path d="M19,20 L17,20 L17,21 L19,21 L19,20 L19,20 Z M20,20 L20.4935615,20 C21.1517723,20 21.7084513,20.4174038 21.9145895,21 L20,21 L20,20 Z M19,23 L17,23 L17,23 L17,22 L19,22 L19,23 L19,23 Z M20,23 L20.4935615,23 C21.1503273,23 21.70893,22.5851089 21.9150859,22 L20,22 L20,23 L20,23 Z M16,20 L14,20 L14,21 L16,21 L16,20 L16,20 Z M16,23 L14,23 L14,23 L14,22 L16,22 L16,23 L16,23 Z M13,20 L12.5064385,20 C11.8496727,20 11.29107,20.4148911 11.0849141,21 L11.0849141,21 L13,21 L13,20 L13,20 Z M13,23 L12.5064385,23 C11.8482277,23 11.2915487,22.5825962 11.0854105,22 L11.0854105,22 L13,22 L13,23 L13,23 Z M16.5,29 C23.4035597,29 29,23.4035597 29,16.5 C29,9.59644029 23.4035597,4 16.5,4 C9.59644029,4 4,9.59644029 4,16.5 C4,23.4035597 9.59644029,29 16.5,29 Z M12,15 C12.5522848,15 13,14.5522848 13,14 C13,13.4477152 12.5522848,13 12,13 C11.4477152,13 11,13.4477152 11,14 C11,14.5522848 11.4477152,15 12,15 Z M21,15 C21.5522848,15 22,14.5522848 22,14 C22,13.4477152 21.5522848,13 21,13 C20.4477152,13 20,13.4477152 20,14 C20,14.5522848 20.4477152,15 21,15 Z M20.6215213,9.96709541 L20.0623284,10.796133 L23.3784787,13.0329046 L23.9376716,12.203867 L20.6215213,9.96709541 Z M9.0623284,12.203867 L9.62152131,13.0329046 L12.9376716,10.796133 L12.3784787,9.96709541 L9.0623284,12.203867 Z" id="worried-face-teeth" sketch:type="MSShapeGroup"></path>
        </g>
    </g>
</svg>

<svg width="32" height="32" viewBox="0 0 32 32" xmlns="http://www.w3.org/2000/svg"><path d="M19 20h-2v1h2v-1zm1 0h.494c.658 0 1.214.417 1.42 1H20v-1zm-1 3h-2v-1h2v1zm1 0h.494c.656 0 1.215-.415 1.421-1H20v1zm-4-3h-2v1h2v-1zm0 3h-2v-1h2v1zm-3-3h-.494c-.656 0-1.215.415-1.421 1H13v-1zm0 3h-.494a1.504 1.504 0 0 1-1.42-1H13v1zm3.5 6C23.404 29 29 23.404 29 16.5S23.404 4 16.5 4 4 9.596 4 16.5 9.596 29 16.5 29zM12 15a1 1 0 1 0 0-2 1 1 0 0 0 0 2zm9 0a1 1 0 1 0 0-2 1 1 0 0 0 0 2zm-.378-5.033l-.56.83 3.316 2.236.56-.83-3.316-2.236zm-11.56 2.237l.56.829 3.316-2.237-.56-.829-3.316 2.237z" fill="#929292" fill-rule="evenodd"/></svg>
